build/images/icon-basket-check.svg

<svg width="19" height="15" viewBox="0 0 19 15" fill="none" xmlns="http://www.w3.org/2000/svg">
<path d="M8.60053 14.3159C7.73911 15.228 6.34137 15.228 5.48036 14.3159L0.646069 9.1967C-0.215356 8.28496 -0.215356 6.80485 0.646069 5.89311C1.50708 4.98092 2.90482 4.98092 3.76624 5.89311L6.64653 8.94268C6.86396 9.17249 7.21693 9.17249 7.43478 8.94268L15.2338 0.684139C16.0948 -0.228046 17.4925 -0.228046 18.3539 0.684139C18.7676 1.12218 19 1.71651 19 2.33594C19 2.95536 18.7676 3.54969 18.3539 3.98773L8.60053 14.3159Z" fill="#025BB1"/>
</svg>

<svg width="19" height="15" fill="none" xmlns="http://www.w3.org/2000/svg"><path d="M8.6 14.316a2.121 2.121 0 01-3.12 0L.646 9.196c-.861-.911-.861-2.391 0-3.303a2.12 2.12 0 013.12 0l2.88 3.05c.218.23.57.23.789 0L15.234.684a2.12 2.12 0 013.12 0c.414.438.646 1.033.646 1.652 0 .62-.232 1.214-.646 1.652L8.6 14.316z" fill="#025BB1"/></svg>
